!!!!SEGMENT: pl-wtm--r-1404--001_stefani-jozef--danse-cracovienne.krn
!!!cenid: 18xx:2419
!!!COM: Stefani, Józef
!!!COM-rismID: pe30024097
!!!CDT: 1800/04/16-1876/03/19
!!!CNT: Polish
!!!OTL: Danse Cracovienne
!!!PDT: 1842
!!!AGN: Secular; Krakowiak
!!!SMS-siglum: PL-Wtm
!!!SMS-shelfmark: R 1404
!!!SMS-shelfwork: 001 W
!!!SMS-variant:
!!!SMS-altvar:
!!!NIFC-rismSourceID: 1001117930
!!!NIFC-islandoraID: pl-wtm:25463
!!!URL-pdf-islandora: https://repozytorium.nifc.pl/islandora/object/pl-wtm%3A25463/datastream/PDF/view
!!!URL-scan: https://polish.musicsources.pl/pl/lokalizacje/galeria/rekopisy/6234 @EN{Scan on Polish Music Sources Website} @PL{Skany w portalu Dziedzictwo Muzyki Polskiej w otwartym dostępie}
!!!ONB-nifc: UWAGA: w zbiorze: 1. Dance Cracovienne (skan 0003), 2. Danse (bez tytułu, skan 0004), 3. Mazur zgoda (0006-0007, do Adagio), 4. Adagio-Cracovienne (skan 0007-0008)
!!!AIN: 1 forte
!!!key:
**kern	**kern	**dynam
*part1	*part1	*part1
*staff2	*staff1	*
*Iforte	*Iforte	*
*I"Piano-forte	*I"Piano-forte	*
*clefF4	*clefG2	*
*k[b-e-]	*k[b-e-]	*
*B-:	*B-:	*
*M2/4	*M2/4	*
*>[A,A,B,C,D,D,E,E,F,F,C,D,D,E,E,F,F]	*>[A,A,B,C,D,D,E,E,F,F,C,D,D,E,E,F,F]	*
=1	=1	=1
*>A	*>A	*
*all\right	*all\right	*
*2\right	*2\right	*
4F 4BB-/	8.ddL 8.b-'\	.
.	16ee-Jk 16cc'\	.
4F 4BB-/	8ffL 8dd'\	.
.	8ffJ 8dd'\	.
=2	=2	=2
4F 4BB-/	(>16ffLL 16dd\	.
.	16gg 16ee-\	.
.	16ff 16dd\	.
.	16ee-JJ 16cc\	.
4F 4BB-/	8ddL 8b-\)	.
.	8ddJ 8b-'\	.
=3	=3	=3
4F 4BB-/	8.ddL 8.b-'\	.
.	16ee-Jk 16cc'\	.
4F 4BB-/	8ffL 8dd'\	.
.	8ffJ 8dd'\	.
!!LO:LB:g=original
=4	=4	=4
4F 4BB-\	(>8.ffL 8.dd\	.
.	16ddJk 16b-\)	.
4F 4BB-\	4dd 4b-\	.
=5	=5	=5
*rep	*	*
4F 4BB-\	8.ddL 8.b-\	.
.	16ee-Jk 16cc\	.
4F 4BB-\	8ffL 8dd\	.
.	8ffJ 8dd\	.
*Xrep	*	*
=6	=6	=6
*rep	*	*
4F 4BB-\	(>16ffLL 16dd\	.
.	16gg 16ee-\	.
.	16ff 16dd\	.
.	16ee-JJ 16cc\	.
4F 4BB-\	8ddL 8b-\)	.
.	8ddJ 8b-'\	.
*Xrep	*	*
=7	=7	=7
4F 4BB-\	8ddL 8b-'\	.
.	8ff 8dd'\	.
.	(<8qff 8qdd/	.
4F 4FF\	8ee- 8cc\)	.
.	8ccJ 8e-'\	.
!!LO:LB:g=original
=8	=8	=8
4F 4BB-\	(<8ccL 8e-/	.
.	8b-J 8d/)	.
8F 8BB-\	8b- 8d/	.
8r	8r	.
=9:|!	=9:|!	=9:|!
*>B	*>B	*
*tremolo	*	*
!	!	!LO:DY:rj
8FL 8BB-\	8bb- 8dd'\	f
8F 8BB-\	4bb- 4dd'^<\	.
8F 8BB-\	.	.
8FJ 8BB-\	8ccc' 8ff\	.
=10	=10	=10
*rep	*	*
8FL 8BB-\	(>16ddd\LL	.
.	16ccc\	.
8F 8BB-\	16bb-\	.
.	16aa\JJ	.
8F 8BB-\	16gg\LL	.
.	16ff\	.
8FJ 8BB-\	16ee-\	.
.	16dd\JJ)	.
*Xrep	*	*
=11	=11	=11
*rep	*	*
8FL 8BB-\	8bb- 8dd'\	.
8F 8BB-\	4bb- 4dd'^<\	.
8F 8BB-\	.	.
8FJ 8BB-\	8ccc 8ff'\	.
*Xrep	*	*
!!LO:LB:g=original
=12	=12	=12
8FL 8BB-\	(>16dd\LL	.
.	16ff\	.
8F 8BB-\	16bb-\	.
.	16ddd\JJ	.
8F 8BB-\	8bb-\)	.
8FJ 8BB-\	8r	.
=13	=13	=13
*rep	*	*
8FL 8BB-\	8bb- 8dd'\	.
8F 8BB-\	4bb- 4dd'^<\	.
8F 8BB-\	.	.
!LO:TX:a:t=P:problem=w źródle znak "×" zapisany ołówkiem	!	!
!LO:TX:b:t=×:color=grey	!	!
8FJ 8BB-\	8ccc 8ff'\	.
*Xrep	*	*
=14	=14	=14
*rep	*	*
8FL 8BB-\	(>16ddd\LL	.
.	16ccc\	.
8F 8BB-\	16bb-\	.
.	16aa\JJ	.
8F 8BB-\	16gg\LL	.
.	16ff\	.
8FJ 8BB-\	16ee-\	.
.	16dd\JJ)	.
*Xrep	*	*
*Xtremolo	*	*
=15	=15	=15
8FL 8BB-\	8bb-\L	.
8FJ 8BB-\	8bb-\J	.
.	8qddd/	.
8FL 8E- 8BB-\	(>16ccc\LL	.
.	16bbn\	.
8FJ 8E- 8BB-\	16ccc\	.
.	16ddd\JJ)	.
!!LO:LB:g=original
=16	=16	=16
8F 8D 8BB-\	8bb-\	.
8r	8r	.
4F 4BB-\	4bb- 4dd^<\	.
=17	=17	=17
!	!	!LO:DY:rj
8F 8FF/	8.ccc'\L	p
8cL 8A 8F\	.	.
.	16bbn'\	.
8c 8A 8F\	8ccc'\	.
8cJ 8A 8F\	8aa'\J	.
=18	=18	=18
8cL 8A 8F\	8ff'\L	.
8cJ 8A 8F\	8aa'\J	.
.	(<8qaa/	.
8cL 8B- 8F\	8gg\L 8een)	.
8cJ 8B- 8F\	8ff'\J	.
=19	=19	=19
*tremolo	*	*
8cL 8A 8F\	(>16ccc\LL	.
.	16bbn\	.
8c 8A 8F\	16ccc\	.
.	16ddd\JJ)	.
8c 8A 8F\	8ccc'\L	.
8cJ 8A 8F\	8aa'\J	.
!!LO:LB:g=original
=20	=20	=20
!LO:TX:a:t=P:problem=w źródle to tremolo zapisane półnutami (puste główki nut)	!	!
!LO:N:vis=2	!	!
8cL 8A 8F\	8ff'\L	.
8cJ 8A 8F\	8aa'\J	.
.	(<8qaa/	.
*Xtremolo	*	*
8cL 8B- 8F\	8gg\L 8een)	.
!LO:TX:a:t=P:problem=w źródle znak "×" zapisany ołówkiem	!	!
!LO:TX:b:t=×:color=grey	!	!
8cJ 8A 8F\	8ff'\J	.
=21	=21	=21
*tremolo	*	*
!	!	!LO:DY:rj
8B-L 8F 8BB-\	8bb- 8dd'\	f
8B- 8F 8BB-\	4bb- 4dd'^<\	.
8B- 8F 8BB-\	.	.
8B-J 8F 8BB-\	8ccc 8ff'\	.
=22	=22	=22
*rep	*	*
8B-L 8F 8BB-\	(>16ddd\LL	.
.	16ccc\	.
8B- 8F 8BB-\	16bb-\	.
.	16aa\JJ	.
8B- 8F 8BB-\	16gg\LL	.
.	16ff\	.
8B-J 8F 8BB-\	16ee-\	.
.	16dd\JJ)	.
*Xrep	*	*
*Xtremolo	*	*
=23	=23	=23
8B-L 8F 8BB-\	8bb-L 8dd'\	.
8B-J 8F 8BB-\	8bb-J 8dd'\	.
.	(<8qddd/	.
8AL 8F 8E- 8BB-\	16ccc\LL)	.
.	16bbn'\J	.
8AJ 8F 8E- 8BB-\	8ccc'\J	.
=24	=24	=24
8B- 8F 8D 8BB-\	8bb-\	.
8r	8r	.
4B- 4F 4D 4BB-\	4bb- 4ff 4dd 4b-^<\	.
!	!LO:TX:a:t=P:problem=w źródle znak segno na całej kresce taktowej	!
!LO:TX:a:t=[segno]	!LO:TX:a:t=[segno]	!
!!LO:PB:g=original
=25||	=25||	=25||
*>C	*>C	*
*k[f#]	*k[f#]	*
*M2/4	*M2/4	*
2G 2D 2GG/	2r	f
=26	=26	=26
*rep	*	*
2G 2D 2GG/	2r	.
*Xrep	*	*
=27	=27	=27
*rep	*	*
2G 2D 2GG/	2r	.
*Xrep	*	*
=28	=28	=28
*rep	*	*
2G 2D 2GG/	2r	.
*Xrep	*	*
=29	=29	=29
2G 2D 2GG/	8g'/L	mf
.	(<16b/L	.
.	16cc#X/JJ)	.
.	8dd'/L	.
.	8b'/J	.
=30	=30	=30
*rep	*	*
.	(<8qee/	.
2G 2D 2GG/	8dd\L)	.
.	8cc#X'\	.
.	8dd'\	.
.	8b'\J	.
*Xrep	*	*
=31	=31	=31
4A 4D 4C 4GG\	8a'/L	.
.	(<16b/L	.
.	16a/JJ)	.
4A 4D 4C 4GG\	8f#'/L	.
.	8d'/J	.
!!LO:LB:g=original
=32	=32	=32
4G 4D 4BB 4GG\	8g'/L	.
.	(<16b/L	.
.	16ee/JJ)	.
4G 4D 4BB 4GG\	8cc#X'\L	.
.	8dd'\J	.
=33	=33	=33
*^	*	*
2G 2D/	2GG\	8g'/L	.
.	.	(<16b/L	.
.	.	16cc#X/JJ)	.
.	.	8dd'/L	.
.	.	8b'/J	.
=34	=34	=34	=34
*rep	*rep	*	*
.	.	(<8qee/	.
2G 2D/	2GG\	8dd\L)	.
.	.	8cc#X'\	.
.	.	8dd'\	.
.	.	8b'\J	.
*Xrep	*Xrep	*	*
*v	*v	*	*
=35	=35	=35
4A 4D 4C 4GG\	8a'/L	.
.	(<16b/L	.
.	16a/JJ)	.
*rep	*	*
4A 4D 4C 4GG\	8f#'/L	.
.	8d'/J	.
*Xrep	*	*
=36	=36	=36
8G 8D 8BB 8GG\	8g/	.
8r	8r	.
4G 4D 4BB 4GG\	4gg 4b 4g\	.
!!LO:LB:g=original
=37||:	=37||:	=37||:
*>D	*>D	*
8G 8E 8C\	8ee 8cc\|	f
4G 4E 4C\	4gg 4ee^<\|	.
8r	(>16ff#LL 16dd\	.
.	16eeJJ 16cc\)	.
=38	=38	=38
*tremolo	*	*
8GL 8GG\	(>16ddLL 16b\	.
.	16ee 16cc\	.
8G 8GG\	16dd 16b\	.
.	16cc#XJJ 16a#X\)	.
8G 8GG\	8ddL 8b\	.
8GJ 8GG\	8bJ 8g'\	.
=39	=39	=39
8DL 8DD/	8aL 8f#'\	.
8D 8DD/	8b 8g'\	.
8D 8DD/	8cc 8a'\	.
8DJ 8DD/	8cc#XJ 8a#X'\	.
*Xtremolo	*	*
=40	=40	=40
4GG 4GGG/	8ddL 8b'\	.
.	(>16eeL 16cc\	.
.	16ddJJ 16b\	.
4G\ 4D\ 4BB\ 4GG\	8bL 8g'/)	.
.	8g'/J	.
=41	=41	=41
8G 8E 8C\	8ee 8cc'\	.
4G 4E 4C\	4gg 4ee'^<\	.
8r	(>16ff#LL 16dd\	.
.	16eeJJ 16cc\)	.
=42	=42	=42
*tremolo	*	*
8GL 8GG\	(>16ddLL 16b\	.
.	16ee 16cc\	.
8G 8GG\	16dd 16b\	.
.	16cc#XJJ 16a#X\	.
8G 8GG\	8ddL 8b\)	.
8GJ 8GG\	8bJ 8g'\	.
*Xtremolo	*	*
!!LO:LB:g=original
=43	=43	=43
8D 8DD/	8aL 8f#'/	.
8cL 8A 8D\	(<8ee/	.
8c 8A 8D\	8dd/)	.
8cJ 8A 8D\	8f#'/J	.
=44	=44	=44
8B 8G\	8g/	.
8r	8r	.
4G 4GG/	4gg 4dd 4b 4g\	.
=45:|!|:	=45:|!|:	=45:|!|:
*>E	*>E	*
.	(<8qaa 8qffn/	p
8C 8CC/	8gg'L 8ee\)	.
8r	8ff#X 8dd#X'\	.
8cL 8G 8E 8C\	8gg 8ee'\	.
!	!	!LO:DY:rj
8cJ 8G 8E 8C\	8cccJ 8ee 8cc'^<\	sf
=46	=46	=46
.	(<8qffn 8qddn/	.
4C 4CC/	8eeL 8cc'\)	.
.	8dd#X 8b'\	.
8cL 8G 8E 8C\	8ee 8cc'\	.
8cJ 8G 8E 8C\	8ggJ 8ee'^<\	sf
=47	=47	=47
8GGL 8GGG/	(>16dd\LL	.
.	16cc#X\	.
8Fn 8D 8GG/	16dd\	.
.	16ee\JJ	.
8F 8D 8GG/	8ffn\L)	.
8FJ 8D 8GG/	8b\J	.
!!LO:LB:g=original
=48	=48	=48
8C 8CC/	(>16cc\LL	.
.	16dd\	.
8GL 8E 8C\	16ee\	.
.	16ffn\JJ	.
8G 8E 8C\	16ff#X\LL	.
.	16gg\	.
8GJ 8E 8C\	16aa\	.
.	16gg\JJ)	.
=49	=49	=49
.	(<8qaa 8qffn/	.
4C 4CC/	8ggL 8ee\)	.
.	8ff#X 8dd#X'\	.
8cL 8G 8E 8C\	8gg 8ee'\	.
8cJ 8G 8E 8C\	8cccJ 8ee 8cc'\	sf
=50	=50	=50
*rep	*	*
.	(<8qffn 8qddn/	.
4C 4CC/	8eeL 8cc'\)	.
.	8dd#X 8b'\	.
8cL 8G 8E 8C\	8ee 8cc'\	.
8cJ 8G 8E 8C\	8ggJ 8ee'\	sf
*Xrep	*	*
=51	=51	=51
8GG 8GGG/	16dd\LL	.
.	16cc#X\	.
8FnL 8D 8GG\	16dd\	.
.	16ee\JJ	.
8F 8D 8GG\	8ffn\L	.
8FJ 8D 8GG\	8b\J	.
=52	=52	=52
8E 8C\	8cc\	.
8r	8r	.
4C 4CC/	4ccc 4gg 4ee 4cc^<\	.
=53:|!|:	=53:|!|:	=53:|!|:
*>F	*>F	*
!	!	!LO:DY:rj
8D 8DD/	8cc 8a\	f
8cL 8A 8D\	4a 4f#^</	.
8c 8A 8D\	.	.
8cJ 8A 8D\	(>16eeLL 16cc\	.
.	16ddJJ 16b\)	.
=54	=54	=54
8GG 8GGG/	16bLL 16g\	.
.	16cc 16a\	.
8BL 8G 8D\	16dd 16b\	.
.	16eeJJ 16cc\	.
8B 8G 8D\	8ddL 8b\	.
8BJ 8G 8D\	8bJ 8g\	.
!!LO:LB:g=original
=55	=55	=55
8D 8DD/	8aL 8f#'/	.
8cL 8A 8D\	(<8ee 8cc/	.
8c 8A 8D\	8dd 8b/)	.
8cJ 8A 8D\	8ccJ 8a'/	.
=56	=56	=56
8GG 8GGG/	(>16bLL 16g\	.
.	16a 16f#\	.
8BL 8G 8D\	16b 16g\	.
.	16ccJJ 16a\	.
8B 8G 8D\	8ddL 8b\)	.
8BJ 8G 8D\	8bJ 8g'\	.
=57	=57	=57
8D 8DD/	8cc 8a\	.
8cL 8A 8D\	4a 4f#^</	.
8c 8A 8D\	.	.
8cJ 8A 8D\	(>16eeLL 16cc\	.
.	16ddJJ 16b\)	.
=58	=58	=58
8GG 8GGG/	(>16bLL 16g\	.
.	16cc 16a\	.
8BL 8G 8D\	16dd 16b\	.
.	16eeJJ 16cc\	.
8B 8G 8D\	8ddL 8b\)	.
8BJ 8G 8D\	8g\J	.
=59	=59	=59
8D 8DD/	8f#'/L	.
8cL 8A 8D\	(<8ee/	.
8c 8A 8D\	8dd/)	.
8cJ 8A 8D\	8f#'/J	.
=60	=60	=60
8B 8G\	8g/	.
8r	8r	.
4G 4GG/	4gg 4dd 4b 4g\	.
!	!LO:TX:a:t=P:problem=w źródle znak segno na całej kresce taktowej	!
!LO:TX:a:t=[segno]	!LO:TX:a:t=[segno]	!
=:|!	=:|!	=:|!
*-	*-	*-
!!!system-decoration: {(s1,s2)}
!!!RDF**kern: | = vertical stroke
!!!RDF**kern: > = above
!!!RDF**kern: < = below
!!!EED: Antoni Szymański
!!!EEV: 2021-06-25
!!!ENC: Marcin Jachim
!!!END: 2021-06-14
!!!YEC: Copyright 2022 Narodowy Instytut Fryderyka Chopina (https://polishscores.org)
!!!YEM: Licence CC BY 4.0 (https://creativecommons.org/licenses/by/4.0)
